symbols/web/filter_frames/materialsymbolsrounded/filter_frames_wght100grad200_40px.svg

<svg xmlns="http://www.w3.org/2000/svg" height="40" width="40"><path d="M6.458 36.792q-1.25 0-2.146-.875-.895-.875-.895-2.167V10.458q0-1.25.895-2.145.896-.896 2.146-.896h7.709l4.791-4.792q.417-.417 1.042-.417t1.083.417l4.75 4.792h7.709q1.25 0 2.146.896.895.895.895 2.145V33.75q0 1.292-.895 2.167-.896.875-2.146.875Zm0-1.709h27.084q.583 0 .958-.395.375-.396.375-.938V10.458q0-.583-.375-.958t-.958-.375H6.458q-.583 0-.958.375t-.375.958V33.75q0 .542.375.938.375.395.958.395Zm5.167-5.041q-.625 0-1.063-.438-.437-.437-.437-1.062V15.708q0-.666.437-1.083.438-.417 1.063-.417h16.75q.625 0 1.063.417.437.417.437 1.083v12.834q0 .625-.437 1.062-.438.438-1.063.438Zm.25-1.75V15.917v12.375Zm0 0h16.25V15.917h-16.25Z"/></svg>

<svg xmlns="http://www.w3.org/2000/svg" height="40" width="40"><path d="M6.458 36.792Q5.208 36.792 4.312 35.917Q3.417 35.042 3.417 33.75V10.458Q3.417 9.208 4.312 8.313Q5.208 7.417 6.458 7.417H14.167L18.958 2.625Q19.375 2.208 20 2.208Q20.625 2.208 21.083 2.625L25.833 7.417H33.542Q34.792 7.417 35.688 8.313Q36.583 9.208 36.583 10.458V33.75Q36.583 35.042 35.688 35.917Q34.792 36.792 33.542 36.792ZM6.458 35.083H33.542Q34.125 35.083 34.5 34.688Q34.875 34.292 34.875 33.75V10.458Q34.875 9.875 34.5 9.5Q34.125 9.125 33.542 9.125H6.458Q5.875 9.125 5.5 9.5Q5.125 9.875 5.125 10.458V33.75Q5.125 34.292 5.5 34.688Q5.875 35.083 6.458 35.083ZM11.625 30.042Q11 30.042 10.562 29.604Q10.125 29.167 10.125 28.542V15.708Q10.125 15.042 10.562 14.625Q11 14.208 11.625 14.208H28.375Q29 14.208 29.438 14.625Q29.875 15.042 29.875 15.708V28.542Q29.875 29.167 29.438 29.604Q29 30.042 28.375 30.042ZM11.875 28.292V15.917V28.292ZM11.875 28.292H28.125V15.917H11.875Z"/></svg>
